X: 860
T: Fasten the Leg In Her
N:"Collected by F.O'Neill"
B:O'Neill's 860
Z:Transcribed by Dan G. Petersen, dangp@post6.tele.dk
M:6/8
L:1/8
K:G
(d/c/)|B2B BAB|GBd gdB|A2A AGA|Bee dBA|
B2B BAB|GBd gfg|efg (f<a)g|fdd d2:|
(e/f/)|gag fgf|ede fdB|ABA AGA|Bee dBA|
gag fgf|ede fdd|def (e<a)g|fdd d2:|


